X: 29196
T: New Copperplate, The
R: reel
M: 4/4
K: Gmajor
|:G2dG BGdG|G2dG BGGG|A2eA cAeA|A2ed cAFA|
G2dG BGdG|GAdc BGGG|ABcd efge|1 aged cAFA:|2 aged cdef||
|:gbaf g2ef|gedc BGGG|[Ae]aab a2g/f/e|aged cdef|
gbaf g2ef|gedc BGGG|ABcd efge|1 agf/e/d cdef:|2 agf/e/d cAFA||

